X:065
T:Calum's Road
S:Various sessions
Z:Nigel Gatherer
M:4/4
L:1/8
K:D
z2|D2 A>f A4|B<dd>c B>AF>A|B2 d>D F2 E>D|B,<DD>F E4|
D2 A>f A4|B<dd>c B>AF>A|B2 d>D F2 E>D|B,<DD>E D2:|
F>A|B2 d>c B4|A>BA<E F4|B2 d>c B2 A>B|d2 d>e (3fed (3dBA|
B2 d>c B4|A>BA<E F2 E>D|B2 d>D F2 E>D|B,<DD>E D2:|
<end>
<start>
